icons/media/stop.svg

<svg width="32" height="32" viewBox="0 0 32 32" fill="none" xmlns="http://www.w3.org/2000/svg">
<path fill-rule="evenodd" clip-rule="evenodd" d="M5 7C5 5.89543 5.89543 5 7 5H25C26.1046 5 27 5.89543 27 7V25C27 26.1046 26.1046 27 25 27H7C5.89543 27 5 26.1046 5 25V7ZM25 7L7 7V25H25V7Z" fill="black"/>
</svg>

<svg viewBox="0 0 32 32" xmlns="http://www.w3.org/2000/svg"><path fill-rule="evenodd" d="M5 7a2 2 0 012-2h18a2 2 0 012 2v18a2 2 0 01-2 2H7a2 2 0 01-2-2V7zm20 0H7v18h18V7z"/></svg>
